X:1
T:My Melancholy Baby 
L:1/4
M:4/4
K:C
"C"EF^FG|dcG^F|"Bb7"F4|"A7"E4|
"Dm7"ED^CD|F2"A7"B2|"Dm7"A4-|A4|
"G7"DEFG|AcBA|"D7"E4|"G7"D4|
"C/E"DCB,C|"Ebo7"DCDE|"Dm7"G4-|"G7"G4|
"C"EF^FG|dcG^F|"Bb7"F4|"A7"E4|
"Dm7"ED^CD|F2"A7"B2|"Dm7"A4-|A4|
"F"A^GAB|"F#o7"c2BA|"C"G^FG^F|"A7"A4|
"Dm7"FG^GA|"G7"EGED|"C"C2 "Ebo7"z2|"Dm7"z2 "G7"z2|]
